icons/chevron-square-left.svg

<svg width="24" height="24" viewBox="0 0 24 24" fill="none" xmlns="http://www.w3.org/2000/svg">
<path fill-rule="evenodd" clip-rule="evenodd" d="M9 3.75C6.11421 3.75 3.75 6.11421 3.75 9V15C3.75 17.8858 6.11421 20.25 9 20.25H15C17.8858 20.25 20.25 17.8858 20.25 15V9C20.25 6.11421 17.8858 3.75 15 3.75H9ZM2.25 9C2.25 5.28579 5.28579 2.25 9 2.25H15C18.7142 2.25 21.75 5.28579 21.75 9V15C21.75 18.7142 18.7142 21.75 15 21.75H9C5.28579 21.75 2.25 18.7142 2.25 15V9Z" fill="black"/>
<path fill-rule="evenodd" clip-rule="evenodd" d="M14.2428 7.81977C14.5357 8.11266 14.5357 8.58754 14.2428 8.88043L11.1231 12.0001L14.2428 15.1198C14.5357 15.4127 14.5357 15.8875 14.2428 16.1804C13.9499 16.4733 13.4751 16.4733 13.1822 16.1804L9.98215 12.9804L10.5125 12.4501M10.5125 12.4501L9.98215 12.9804C9.71734 12.7156 9.53748 12.3578 9.53748 11.9626C9.53748 11.5795 9.70978 11.2196 10.0238 10.9781L13.1822 7.81977C13.4751 7.52687 13.9499 7.52687 14.2428 7.81977M11.0257 11.8993C11.0257 11.8993 11.026 11.8999 11.0266 11.9009L11.0257 11.8993Z" fill="black"/>
</svg>

<svg xmlns="http://www.w3.org/2000/svg" fill="none" viewBox="0 0 24 24">
  <path fill="#000" fill-rule="evenodd" d="M9 3.75C6.114 3.75 3.75 6.114 3.75 9v6c0 2.886 2.364 5.25 5.25 5.25h6c2.886 0 5.25-2.364 5.25-5.25V9c0-2.886-2.364-5.25-5.25-5.25H9ZM2.25 9c0-3.714 3.036-6.75 6.75-6.75h6c3.714 0 6.75 3.036 6.75 6.75v6c0 3.714-3.036 6.75-6.75 6.75H9c-3.714 0-6.75-3.036-6.75-6.75V9Z" clip-rule="evenodd"/>
  <path fill="#000" fill-rule="evenodd" d="M14.243 7.82a.75.75 0 0 1 0 1.06L11.123 12l3.12 3.12a.75.75 0 1 1-1.06 1.06l-3.2-3.2.53-.53m0 0-.53.53a1.45 1.45 0 0 1-.446-1.017c0-.383.173-.743.487-.985l3.158-3.158a.75.75 0 0 1 1.06 0m-3.216 4.08Z" clip-rule="evenodd"/>
</svg>
